!!!COM: Palestrina, Giovanni Perluigi da
!!!OPR: Missa Sacerdotes Domini
!!!OTL: Agnus I
**kern	**kern	**kern	**kern	**kern	**kern
*Ibass	*Ibarit	*Itenor	*Itenor	*Icalto	*Icant
!Bassus	!Baritone	!Tenor 2	!Tenor 1	!Altus	!Cantus
*clefF4	*clefF4	*clefGv2	*clefGv2	*clefG2	*clefG2
*k[]	*k[]	*k[]	*k[]	*k[]	*k[]
*G:mix	*G:mix	*G:mix	*G:mix	*G:mix	*G:mix
*M4/2	*M4/2	*M4/2	*M4/2	*M4/2	*M4/2
=1	=1	=1	=1	=1	=1
1.d	0r	0r	0r	1r	0r
.	.	.	.	[1a	.
2d	.	.	.	.	.
=2	=2	=2	=2	=2	=2
2c	0r	0r	0r	2a]	0r
2A	.	.	.	2a	.
[1c	.	.	.	2g	.
.	.	.	.	2e	.
=3	=3	=3	=3	=3	=3
2c]	0r	0r	0r	1.g	2r
4B	.	.	.	.	1dd
4A	.	.	.	.	.
1B	.	.	.	.	.
.	.	.	.	4f	2dd
.	.	.	.	4e	.
=4	=4	=4	=4	=4	=4
0A	0r	0r	0r	1f	2cc
.	.	.	.	.	2a
.	.	.	.	2.e	[1cc
.	.	.	.	4f	.
=5	=5	=5	=5	=5	=5
0E	0r	0r	0r	2g	2cc]
.	.	.	.	1a	4b
.	.	.	.	.	4a
.	.	.	.	.	1b
.	.	.	.	2g	.
=6	=6	=6	=6	=6	=6
2r	1.d	0r	0r	1f	1a
1D	.	.	.	.	.
.	.	.	.	2d	2.f
2D	2d	.	.	[2a	.
.	.	.	.	.	4g
=7	=7	=7	=7	=7	=7
2.F	2c	1r	0r	2a]	4a
.	.	.	.	.	4b
.	2A	.	.	2a	4cc
4E	.	.	.	.	4dd
2.C	[1c	[1e	.	2g	1ee
.	.	.	.	2e	.
4D	.	.	.	.	.
=8	=8	=8	=8	=8	=8
1E	2c]	2e]	0r	2g	1ee
.	4B	2e	.	1a	.
.	4A	.	.	.	.
1r	1B	2d	.	.	2r
.	.	2B	.	2g#	[2dd
=9	=9	=9	=9	=9	=9
1D	1A	1.d	1.f	0a	2dd]
.	.	.	.	.	2dd
2.F	1r	.	.	.	4a
.	.	.	.	.	4b
.	.	4c	2f	.	[2cc
4G	.	4B	.	.	.
=10	=10	=10	=10	=10	=10
1A	0r	1c	2e	2r	4cc]
.	.	.	.	.	4b
.	.	.	2c	2.e	2a
2.E	.	1B	[1e	.	2.g
.	.	.	.	4f	.
.	.	.	.	[2g	.
4F	.	.	.	.	4a
=11	=11	=11	=11	=11	=11
2G	1r	0r	2e]	2g]	2b
2A	.	.	4d	2f#	1cc
.	.	.	4c	.	.
1G	2r	.	1d	1g	.
.	2d	.	.	.	2b
=12	=12	=12	=12	=12	=12
2C	2e	0r	1c	2g	1cc
2E	1c	.	.	2g	.
2F	.	.	1r	2a	2r
2G	2B	.	.	[2g	2dd
=13	=13	=13	=13	=13	=13
1C	1.c	2r	0r	2g]	1ee
.	.	2e	.	2g	.
2.F	.	2f	.	[1a	2cc
.	2d	[2d	.	.	2ff
8E	.	.	.	.	.
8D	.	.	.	.	.
=14	=14	=14	=14	=14	=14
1A	1e	2d]	1r	2a]	2.ee
.	.	2c#	.	2a	.
.	.	.	.	.	8dd
.	.	.	.	.	8ee
1D	1d	[1d	2r	1a	4ff
.	.	.	.	.	4ee
.	.	.	2f	.	4dd
.	.	.	.	.	4cc
=15	=15	=15	=15	=15	=15
2G	0r	2d]	2g	1g	2b
2C	.	2e	1e	.	2cc
1D	.	1f	.	2r	2.a
.	.	.	2d	2a	.
.	.	.	.	.	4b
=16	=16	=16	=16	=16	=16
2.A	0r	1e	1.e	1a	4cc
.	.	.	.	.	4dd
.	.	.	.	.	1cc
4B	.	.	.	.	.
2c	.	1r	.	2g	.
2d	.	.	2f	[2f	2b
=17	=17	=17	=17	=17	=17
1c	1r	0r	1g	2f]	2cc
.	.	.	.	2e	2g
1F	2r	.	1f	2f	1a
.	2c	.	.	[2a	.
=18	=18	=18	=18	=18	=18
1D	1d	0r	0r	4a]	2f
.	.	.	.	4g	.
.	.	.	.	4f	2a
.	.	.	.	4e	.
2G	2B	.	.	2d	2g
2C	2c	.	.	2e	2g
=19	=19	=19	=19	=19	=19
1G	2c	2r	0r	1d	1g
.	2B	2d	.	.	.
1C	2.c	1e	.	2r	2g
.	.	.	.	2g	[2cc
.	4B	.	.	.	.
=20	=20	=20	=20	=20	=20
0r	2A	2c	1r	2f	4cc]
.	.	.	.	.	4a
.	2G	2d	.	2g	2b-
.	1A	2d	2r	1e	1a
.	.	2c#	2e	.	.
=21	=21	=21	=21	=21	=21
0r	0r	2.d	1f	2d	2a
.	.	.	.	2f	2dd
.	.	4c	.	.	.
.	.	2B	2d	2g	2dd
.	.	2A	2e	[2a	2cc
=22	=22	=22	=22	=22	=22
1r	0r	1B	2e	2a]	1dd
.	.	.	2d	2g#	.
[1A	.	1r	2.e	2a	1cc
.	.	.	.	2e	.
.	.	.	4d	.	.
=23	=23	=23	=23	=23	=23
2A]	1r	0r	2c	2f	2r
2G	.	.	2B	2g	2e
2F	2r	.	1c	2a	2f
2E	[2c	.	.	2g	2g
=24	=24	=24	=24	=24	=24
1D	2c]	0r	0r	2.f	2a
.	2B	.	.	.	2b
.	.	.	.	4d	.
2C	2A	.	.	4e	2cc
.	.	.	.	4f#	.
2E	2G	.	.	[2g	4b
.	.	.	.	.	4cc
=25	=25	=25	=25	=25	=25
1D	1A	2r	0r	2g]	2.dd
.	.	1d	.	2f#	.
.	.	.	.	.	4cc
2G	1G	.	.	1g	2b
2C	.	2c	.	.	[2ee
=26	=26	=26	=26	=26	=26
2E	0r	2B	1r	2r	2ee]
2F	.	2A	.	1a	2dd
1E	.	1B	2r	.	1ee
.	.	.	[2e	2g#	.
=27	=27	=27	=27	=27	=27
2A	0r	1A	2e]	1.a	2cc
2D	.	.	2d	.	1ff
2F	.	1r	2c	.	.
2G	.	.	2B	2g	4ee
.	.	.	.	.	4dd
=28	=28	=28	=28	=28	=28
2.C	2r	0r	1c	1g	2.ee
.	1e	.	.	.	.
4D	.	.	.	.	4ff
4E	.	.	1B	1g	2.gg
4F	.	.	.	.	.
2G	2d	.	.	.	.
.	.	.	.	.	4ff
=29	=29	=29	=29	=29	=29
2A	2c	1r	0r	2r	4ee
.	.	.	.	.	4dd
2E	2B	.	.	2g	2ee
1F	1A	2r	.	2a	[1cc
.	.	[2f	.	2f	.
=30	=30	=30	=30	=30	=30
1C	1G	2f]	0r	1g	1cc]
.	.	2e	.	.	.
2.F	1r	2d	.	1a	2r
.	.	2c	.	.	2a
4F	.	.	.	.	.
=31	=31	=31	=31	=31	=31
1G	0r	1B	2r	2g	2.b
.	.	.	1g	1d	.
.	.	.	.	.	4cc
1D	.	1A	.	.	2dd
.	.	.	2f	2d	[2a
=32	=32	=32	=32	=32	=32
0r	0r	0r	2e	2c	2a]
.	.	.	2d	2B	1g
.	.	.	1c	1A	.
.	.	.	.	.	2f#
=33	=33	=33	=33	=33	=33
2.E	2r	0r	1B	1G	2g
.	1e	.	.	.	2b
4D	.	.	.	.	.
2C	.	.	1r	1g	2cc
2BB	2d	.	.	.	2dd
=34	=34	=34	=34	=34	=34
2C	2e	1r	0r	1g	2ee
2G	2B	.	.	.	4dd
.	.	.	.	.	4ee
1F	1A	2r	.	2a	1ff
.	.	[2f	.	[2cc	.
=35	=35	=35	=35	=35	=35
1C	1G	2f]	0r	4cc]	1gg
.	.	.	.	8b	.
.	.	.	.	8a	.
.	.	2e	.	2g	.
1F	2F	2d	.	1a	2r
.	2A	2c	.	.	2ff
=36	=36	=36	=36	=36	=36
1G	2B	1B	2r	1g	2ee
.	1d	.	1g	.	2.dd
1D	.	1A	.	1r	.
.	.	.	.	.	8cc
.	.	.	.	.	8b
.	2d	.	2f	.	2a
=37	=37	=37	=37	=37	=37
1G	2.B	[0G	2e	0g	1b
.	.	.	2d	.	.
.	8c	.	.	.	.
.	8d	.	.	.	.
1C	1e	.	1c	.	1cc
=38	=38	=38	=38	=38	=38
0G	0d	0G]	0B	0g	0dd
==	==	==	==	==	==
*-	*-	*-	*-	*-	*-
!!!CDT: 1525/^1526/-1594/2/2
!!!OCY: Italia
!!!AGN: Mass (Canonic)
!!!AST: renaissance, vocal
!!!ASW: Motet (unidentified)
!!!PWK: Masses, Book 8
!!!RNB: Cadence finals: C
!!!YOR: Le Opere Complete, v. 24, p. 157
!!!YOO: Rome, Italy: Fratelli Scalera
!!!END: 1992//
!!!EED: John Miller
!!!YEC: Copyright 2000, John Miller
!!!YEN: United States of America
!!!YEM: Rights to all derivative electronic formats reserved.
!!!YEM: Refer to licensing agreement for further details.
!!!YEM: This file must be accompanied by the licensing agreement.
!!!YEM: A copy of the licensing agreement may be found at http://www.music-cog.ohio-state.edu/HumdrumDatabases/Palestrina/license.txt
!!!EMD: converted to Humdrum by Bret Aarden
